packages/tools/pie-icons/src/assets/cash-large.svg

<svg width="32" height="32" viewBox="0 0 32 32" fill="none" xmlns="http://www.w3.org/2000/svg">
<path fill-rule="evenodd" clip-rule="evenodd" d="M16.1924 15.9388C16.5862 15.335 17.1899 14.9238 17.8899 14.775C19.3337 14.4688 20.7687 15.3963 21.0749 16.8488C21.2237 17.5488 21.0924 18.2663 20.6987 18.87C20.3049 19.4738 19.7012 19.885 19.0012 20.0338C18.8174 20.0775 18.6249 20.095 18.4412 20.095C17.9249 20.095 17.4174 19.9463 16.9799 19.6575C16.3762 19.2638 15.9649 18.66 15.8162 17.96C15.6674 17.26 15.7987 16.5425 16.1924 15.9388ZM18.6337 18.3188C18.8787 18.2663 19.0887 18.1263 19.2287 17.9163H19.2374C19.3687 17.7063 19.4212 17.4525 19.3687 17.2075C19.2724 16.77 18.8874 16.4638 18.4499 16.4638C18.3887 16.4638 18.3187 16.4638 18.2574 16.4813C18.0124 16.5338 17.7937 16.6738 17.6624 16.8838C17.5312 17.0938 17.4787 17.3475 17.5312 17.5925C17.5837 17.8375 17.7237 18.0475 17.9337 18.1875C18.1349 18.3188 18.3887 18.3713 18.6337 18.3188Z" fill="#242E30"/>
<path d="M11.8438 17.295L12.3862 18.9575C13.1037 18.7213 13.8475 18.555 14.6 18.4588L14.3725 16.7263C13.5238 16.84 12.675 17.0325 11.8525 17.295H11.8438Z" fill="#242E30"/>
<path d="M22.5099 18.135L22.2737 16.4025C23.0262 16.3062 23.7699 16.14 24.4874 15.9038L25.0299 17.5663C24.2162 17.8288 23.3674 18.0213 22.5099 18.135Z" fill="#242E30"/>
<path fill-rule="evenodd" clip-rule="evenodd" d="M26.6313 11.2661L28.4163 19.6924C28.4951 20.0599 28.3288 20.4362 28.0051 20.6286C25.3801 22.1511 22.2826 22.8161 19.2638 22.4836C16.5951 22.1949 13.8651 22.7724 11.5638 24.1111C11.4326 24.1899 11.2751 24.2336 11.1263 24.2336C11.0038 24.2336 10.8813 24.2074 10.7676 24.1549C10.5138 24.0412 10.3301 23.8049 10.2688 23.5337L9.92759 21.9324C9.63009 22.1862 9.34134 22.4486 9.07009 22.7287C8.90384 22.8949 8.67634 22.9911 8.44009 22.9911C8.42357 22.9911 8.40509 22.9892 8.38559 22.9871C8.36379 22.9848 8.34068 22.9824 8.31759 22.9824C8.04634 22.9386 7.80134 22.7637 7.67009 22.5186L3.67134 14.8886C3.49634 14.5561 3.55759 14.1449 3.82009 13.8736C5.92884 11.6949 8.75509 10.2161 11.7651 9.71744C14.3901 9.27994 16.8576 7.99369 18.7038 6.07744C18.8963 5.87619 19.1763 5.78869 19.4563 5.82369C19.7276 5.86744 19.9726 6.04244 20.1038 6.28744L22.9651 11.7474C23.7876 11.4761 24.5838 11.1261 25.3363 10.6886C25.5813 10.5486 25.8788 10.5311 26.1326 10.6449C26.3863 10.7586 26.5701 10.9949 26.6313 11.2661ZM8.48384 15.1074C8.40509 14.7399 8.57134 14.3636 8.89509 14.1711V14.1799C11.5113 12.6486 14.6176 11.9924 17.6626 12.3249C18.8438 12.4561 20.0426 12.4036 21.2151 12.1936L19.0888 8.13369C17.1026 9.85744 14.6438 11.0299 12.0451 11.4586C9.61259 11.8611 7.32009 12.9899 5.52634 14.6611L8.68509 20.6899C8.95634 20.4536 9.23634 20.2261 9.52509 20.0161L8.48384 15.1074ZM11.7388 22.0374C14.1101 20.9086 16.8051 20.4536 19.4476 20.7424L19.4563 20.7336C21.8888 20.9961 24.3913 20.5324 26.5701 19.4036L25.1613 12.7449C24.7151 12.9636 24.2513 13.1386 23.7876 13.3049C23.2276 13.5061 22.6588 13.6636 22.0726 13.7949C20.5676 14.1186 19.0101 14.2149 17.4788 14.0486C15.0201 13.7774 12.5088 14.2411 10.3301 15.3699L11.0913 18.9836L11.4763 20.7949L11.7388 22.0374Z" fill="#242E30"/>
</svg>

<svg width="32" height="32" viewBox="0 0 32 32" fill="none" xmlns="http://www.w3.org/2000/svg">
  <path fill="#242E30" fill-rule="evenodd" d="M16.192 15.939a2.677 2.677 0 0 1 1.698-1.164 2.692 2.692 0 0 1 3.185 2.074 2.66 2.66 0 0 1-.376 2.021A2.677 2.677 0 0 1 19 20.034a2.648 2.648 0 0 1-2.021-.376 2.677 2.677 0 0 1-1.164-1.698 2.66 2.66 0 0 1 .376-2.021Zm2.442 2.38a.944.944 0 0 0 .595-.403h.009a.96.96 0 0 0 .13-.709.944.944 0 0 0-.918-.743c-.061 0-.131 0-.192.017a.922.922 0 0 0-.595.403.961.961 0 0 0-.132.709.931.931 0 0 0 1.102.726Z" clip-rule="evenodd"/>
  <path fill="#242E30" d="m11.844 17.295.542 1.662a11.925 11.925 0 0 1 2.214-.498l-.227-1.733c-.85.114-1.698.306-2.52.569h-.01ZM22.51 18.135l-.236-1.733a11.932 11.932 0 0 0 2.213-.498l.543 1.662a14.4 14.4 0 0 1-2.52.569Z"/>
  <path fill="#242E30" fill-rule="evenodd" d="m26.631 11.266 1.785 8.426a.876.876 0 0 1-.41.937 14.392 14.392 0 0 1-8.742 1.855 12.69 12.69 0 0 0-7.7 1.627.855.855 0 0 1-.796.044.897.897 0 0 1-.5-.621l-.34-1.601a12.3 12.3 0 0 0-.858.796.895.895 0 0 1-.63.262.53.53 0 0 1-.054-.004.65.65 0 0 0-.068-.004.908.908 0 0 1-.648-.464l-3.999-7.63a.877.877 0 0 1 .15-1.015 14.415 14.415 0 0 1 7.944-4.157 12.558 12.558 0 0 0 6.939-3.64.882.882 0 0 1 .752-.253.908.908 0 0 1 .648.463l2.861 5.46a12.501 12.501 0 0 0 2.371-1.058.883.883 0 0 1 .797-.044c.253.114.437.35.498.621ZM8.484 15.107a.877.877 0 0 1 .411-.936v.009a14.358 14.358 0 0 1 8.768-1.855c1.18.131 2.38.079 3.552-.131l-2.126-4.06a14.385 14.385 0 0 1-7.044 3.325 12.646 12.646 0 0 0-6.519 3.202l3.16 6.029c.27-.236.55-.464.84-.674l-1.042-4.908Zm3.255 6.93a14.386 14.386 0 0 1 7.709-1.294l.008-.01a12.61 12.61 0 0 0 7.114-1.33l-1.409-6.658c-.446.219-.91.394-1.373.56-.56.201-1.13.359-1.715.49a14.47 14.47 0 0 1-4.594.254 12.608 12.608 0 0 0-7.149 1.321l.761 3.614.385 1.811.263 1.242Z" clip-rule="evenodd"/>
</svg>
